assets/svg/question_milestone.svg

<svg fill="none" height="60" viewBox="0 0 60 60" width="60" xmlns="http://www.w3.org/2000/svg"><path d="m56.639 30 1.784-3.4807-2.5593-2.9568.8973-3.8062-3.1963-2.2534-.0443-3.9103-3.6428-1.4226-.9756-3.78696-3.8766-.51436-1.8504-3.44527-3.8871.42872-2.6244-2.89905-3.6695 1.35237-3.243-2.18515-3.2429 2.18515-3.6696-1.35237-2.6246 2.89905-3.8869-.42859-1.8504 3.44527-3.8768.51435-.9754 3.78714-3.64282 1.4225-.04431 3.9104-3.19619 2.2532.89727 3.8063-2.55934 2.9566 1.78407 3.4807-1.78395 3.4806 2.55922 2.9568-.89727 3.8063 3.19631 2.2533.04432 3.9104 3.64282 1.4225.97557 3.787 3.8766.5144 1.8504 3.4452 3.8871-.4287 2.6244 2.8991 3.6695-1.3524 3.2429 2.1851 3.243-2.1851 3.6696 1.3524 2.6246-2.8991 3.8869.4286 1.8504-3.4453 3.8767-.5143.9755-3.7871 3.6428-1.4226.0443-3.9103 3.1962-2.2533-.8973-3.8062 2.5594-2.9567z" fill="#ff7b5d"/><path d="m29.751 52.9045c12.6499 0 22.9046-10.2547 22.9046-22.9045 0-12.6499-10.2547-22.9046-22.9046-22.9046-12.6498 0-22.90452 10.2547-22.90452 22.9046 0 12.6498 10.25472 22.9045 22.90452 22.9045z" fill="#ecf4fa"/><path d="m29.751 44.9377c8.2499 0 14.9378-6.6878 14.9378-14.9377s-6.6879-14.9378-14.9378-14.9378-14.9377 6.6879-14.9377 14.9378 6.6878 14.9377 14.9377 14.9377z" fill="#ff7b5d"/><path d="m17.6096 38.7027c4.5354 6.3234 13.1653 8.1063 19.8352 4.0979s9.1459-12.4655 5.6909-19.4381c-5.9312 8.5202-15.2188 14.1018-25.5261 15.3402z" fill="#fff" opacity=".2"/><path d="m25.7676 38.9626c-.5283.0007-1.0351-.2093-1.4082-.5834l-3.9834-3.9834c-.5107-.5016-.7129-1.2387-.5297-1.9307s.7236-1.2325 1.4157-1.4157c.692-.1831 1.429.0191 1.9306.5299l2.575 2.5749 9.5461-9.5459c.7798-.7659 2.0311-.7603 2.804.0126.7729.7728.7785 2.0241.0127 2.8039l-10.9544 10.9544c-.3731.3741-.88.5841-1.4084.5834z" fill="#ecf4fa"/><g fill="#102b44"><path clip-rule="evenodd" d="m54.5547 16.9825 2.78 1.9599c.3323.234.489.6464.396 1.0421l-.7805 3.3112 2.2257 2.572c.2657.307.3184.7446.1332 1.1059l-1.5511 3.0264 1.5511 3.0269c.1852.3613.1325.7988-.1332 1.1059l-2.2243 2.5722.7805 3.3112c.0932.3956-.0633.8082-.3955 1.0424l-2.78 1.96-.0386 3.4011c-.0046.406-.2553.7686-.6335.9163l-3.1679 1.237-.8483 3.2934c-.1013.3933-.4313.6857-.834.7389l-3.3714.4472-1.6092 2.9963c-.1922.358-.5826.5633-.9865.5187l-3.3811-.3734-2.2829 2.5218c-.273.3012-.7016.4065-1.083.2661l-3.1915-1.1764-2.8202 1.9006c-.3364.2267-.7767.2267-1.1131 0l-2.8203-1.9006-3.1912 1.1762c-.3814.1408-.8101.0355-1.083-.2659l-2.283-2.5217-3.3811.3728c-.4038.044-.7939-.1611-.9865-.5187l-1.6092-2.9963-3.3713-.4472c-.4027-.0532-.73273-.3455-.83407-.7388l-.84834-3.2934-3.1683-1.2374c-.37826-.1477-.62893-.5103-.63348-.9164l-.03859-3.4011-2.78004-1.9599c-.3322-.2342-.48878-.6467-.3956-1.0423l.78049-3.3112-2.225723-2.572c-.2656846-.3071-.31838534-.7446-.133195-1.1059l1.551158-3.0264-1.551158-3.0269c-.18519034-.3613-.1324896-.7989.133195-1.1059l2.226103-2.571-.7805-3.3113c-.09326-.3956.06327-.8082.39548-1.0424l2.77941-1.9599.03859-3.4011c.00461-.406.25527-.7686.63349-.9163l3.16792-1.237.84822-3.29338c.1013-.39334.43134-.68575.83404-.73892l3.3718-.44726 1.6092-2.99626c.192-.35817.5826-.56354.9865-.51872l3.381.37282 2.2824-2.52186c.2728-.301439.7015-.40674 1.083-.26602l3.1914 1.17635 2.8203-1.900582c.3364-.2267193.7767-.2267193 1.1131 0l2.8199 1.900582 3.1912-1.17622c.3814-.14097.8102-.03569 1.083.26589l2.283 2.52236 3.3811-.37344c.4038-.04398.7939.16115.9865.51871l1.6092 2.99627 3.3708.44726c.4027.05315.7327.3455.8341.7388l.8483 3.29342 3.1679 1.2369c.3783.1478.6289.5104.6335.9165zm1.1981 12.5634 1.4775-2.8829-2.1199-2.4485c-.2093-.2416-.2898-.569-.2164-.8801l.7428-3.1515-2.6465-1.8658c-.2613-.1842-.4182-.4828-.4218-.8026l-.0358-3.2381-3.017-1.1781c-.2982-.1165-.5222-.3692-.602-.6792l-.8081-3.13693-3.2107-.42585c-.3174-.04195-.5953-.23399-.7468-.5161l-1.5323-2.85361-3.2187.35502c-.3176.03467-.6327-.08487-.8473-.32154l-2.1731-2.40049-3.0384 1.12033c-.3002.11067-.6354.07029-.9008-.10855l-2.6865-1.81033-2.6864 1.81058c-.2655.17866-.6005.21908-.9009.10867l-3.0385-1.12033-2.1731 2.40062c-.2147.2366-.5297.35612-.8474.32154l-3.2186-.35502-1.5311 2.85274c-.1515.2821-.4294.47415-.7469.5161l-3.2107.42585-.808 3.1369c-.0798.3101-.3038.5628-.60201.6793l-3.01705 1.1781-.03735 3.2383c-.00363.3197-.16056.6182-.42186.8025l-2.64648 1.8659.74291 3.1513c.07332.3111-.00715.6385-.21635.8802l-2.11942 2.4487 1.47747 2.8824c.14644.2852.14644.6235 0 .9087l-1.47747 2.8828 2.11992 2.4486c.20927.2416.28976.569.21635.8801l-.74278 3.1515 2.64647 1.8657c.26134.1843.41827.4829.42187.8026l.03572 3.2382 3.01706 1.1781c.2982.1165.5221.3692.602.6791l.8081 3.137 3.2106.4258c.3175.042.5954.234.7469.5161l1.5323 2.8536 3.2187-.355c.3176-.0347.6327.0848.8473.3215l2.1731 2.4005 3.0383-1.1203c.3003-.1107.6355-.0703.9009.1086l2.6864 1.8103 2.6865-1.8106c.2654-.1787.6005-.2191.9008-.1087l3.0386 1.1204 2.1731-2.4007c.2146-.2367.5297-.3563.8474-.3215l3.2185.355 1.5312-2.8522c.1515-.2821.4294-.4742.7468-.5161l3.2108-.4259.808-3.1369c.0798-.31.3038-.5628.602-.6793l3.017-1.1781.0374-3.2382c.0036-.3198.1606-.6183.4219-.8026l2.6464-1.8658-.7429-3.1514c-.0733-.3111.0072-.6385.2164-.8802l2.1194-2.4487-1.4775-2.8828c-.1464-.2852-.1464-.6235 0-.9087z" fill-rule="evenodd"/><path d="m47.6764 29.9999v.0419h1.9917v-.0419c-.0001-.6947-.0359-1.389-.1073-2.08l-1.981.2056c.0642.6227.0965 1.2484.0966 1.8744z"/><path d="m13.3618 37.2717-1.82.8091c.2828.6354.5986 1.2556.9461 1.8581l1.7253-.9951c-.3127-.5422-.5969-1.1003-.8514-1.6721z"/><path d="m16.404 44.7835c.5159.4658 1.0556.9046 1.617 1.3144l1.174-1.6083c-.5054-.3691-.9912-.7641-1.4557-1.1836z"/><path d="m43.0748 18.0082c.4188.4653.8133.952 1.1817 1.4581l1.6105-1.1718c-.4091-.5617-.8471-1.1019-1.312-1.6183z"/><path d="m23.5662 48.9378c.6613.2155 1.3334.3963 2.0136.5415l.4153-1.9479c-.6117-.1305-1.2162-.2931-1.8109-.4871z"/><path d="m47.2886 26.273 1.9486-.4121c-.144-.6806-.3237-1.3531-.5382-2.0148l-1.894.6145c.1928.5952.3543 1.2002.4836 1.8124z"/><path d="m46.1328 22.7101 1.819-.8109c-.2832-.6354-.5995-1.2555-.9476-1.8578l-1.7241.9974c.3132.5418.5978 1.0997.8527 1.6713z"/><path d="m27.6381 49.8061c.6909.0726 1.3852.1096 2.08.1107l.0032-1.9917c-.626-.0009-1.2515-.0341-1.8741-.0995z"/><path d="m15.234 40.5176-1.6119 1.1702c.4084.5625.8458 1.1034 1.3104 1.6205l1.4814-1.3314c-.4183-.4657-.8121-.9527-1.1799-1.4593z"/><path d="m43.0818 15.2018c-.5164-.4654-1.0565-.9036-1.6183-1.3129l-1.1721 1.6102c.5056.3685.9918.7629 1.4564 1.1819z"/><path d="m39.7169 12.7519c-.6017-.3481-1.2211-.6645-1.8558-.948l-.812 1.8187c.5711.2551 1.1285.5399 1.67.8532z"/><path d="m24.2213 12.9434-.6137-1.8946c-.6617.2147-1.3118.464-1.9474.7469l.8099 1.8196c.5716-.2544 1.1561-.4787 1.7512-.6719z"/><path d="m27.8864 12.1704-.2044-1.9813c-.6915.0716-1.3788.1791-2.0591.3222l.4108 1.949c.612-.129 1.2305-.2257 1.8527-.2899z"/><path d="m31.8423 10.1914c-.6911-.0719-1.3854-.1081-2.0802-.1085l-.001 1.9917c.626.0004 1.2515.033 1.8741.0978z"/><path d="m35.915 11.0554c-.6614-.2147-1.3336-.3948-2.0139-.5393l-.4135 1.9482c.6119.1301 1.2165.2922 1.8115.4855z"/><path d="m44.2345 40.5638 1.6083 1.1751c.4099-.5613.7903-1.1436 1.1397-1.7445l-1.7218-1.0009c-.3146.5409-.6572 1.065-1.0262 1.5703z"/><path d="m38.6861 45.5432.9944 1.7258c.6024-.3473 1.1862-.7257 1.7491-1.1338l-1.1688-1.6124c-.5069.3673-1.0325.7078-1.5747 1.0204z"/><path d="m19.766 47.2369c.6013.3489 1.2204.6661 1.8548.9503l.814-1.8174c-.5709-.2557-1.1279-.5411-1.6689-.8551z"/><path d="m41.7204 43.3444 1.3305 1.4813c.5171-.4643 1.0098-.9551 1.4761-1.4705l-1.4772-1.3359c-.4199.4644-.8636.9067-1.3294 1.3251z"/><path d="m46.1164 37.3254 1.8174.8148c.2844-.6347.5353-1.2838.7516-1.9448l-1.8929-.6187c-.1946.5943-.4203 1.178-.6761 1.7487z"/><path d="m35.262 47.0625.6114 1.8955c.6621-.2137 1.3125-.4622 1.9484-.7443l-.8079-1.8205c-.5718.2537-1.1566.4771-1.7519.6693z"/><path d="m12.2176 26.2531-1.9479-.4137c-.1443.6801-.253 1.3673-.32562 2.0587l1.98072.2079c.0652-.6223.163-1.2408.2928-1.8529z"/><path d="m11.8257 30v-.0209h-1.99167v.0209c-.00001.6874.0351 1.3744.10519 2.0583l1.98128-.2038c-.0632-.6162-.0948-1.2351-.0948-1.8545z"/><path d="m31.5959 47.8316.2022 1.9815c.6916-.0708 1.3789-.1776 2.0593-.32l-.4081-1.9493c-.6124.128-1.2311.2241-1.8534.2878z"/><path d="m13.3776 22.6929-1.8184-.8127c-.2836.635-.5337 1.2844-.7492 1.9456l1.8937.6168c.1939-.5946.4189-1.1786.6739-1.7497z"/><path d="m12.2095 33.7075-1.9491.4099c.1433.6808.3222 1.3535.536 2.0155l1.8952-.6127c-.1924-.5953-.3533-1.2004-.4821-1.8127z"/><path d="m47.2803 33.7658 1.9477.4165c.1451-.68.2546-1.367.328-2.0584l-1.9806-.21c-.0661.622-.1646 1.2401-.2951 1.8519z"/><path d="m17.7669 16.6695-1.332-1.4806c-.5166.465-1.0087.9565-1.4745 1.4724l1.4787 1.3342c.4195-.4646.8626-.9072 1.3278-1.326z"/><path d="m15.2561 19.4522-1.6096-1.1734c-.4093.5618-.7891 1.1444-1.138 1.7456l1.7231.9991c.3139-.5412.6559-1.0657 1.0245-1.5713z"/><path d="m20.7988 14.4666-.9958-1.7248c-.602.348-1.1856.7271-1.7482 1.1357l1.1709 1.6113c.5062-.3679 1.0313-.7091 1.5731-1.0222z"/><g clip-rule="evenodd" fill-rule="evenodd"><path d="m29.751 14.0663c8.7999 0 15.9336 7.1338 15.9336 15.9337-.01 8.7957-7.1378 15.9235-15.9336 15.9336-8.7999 0-15.9336-7.1338-15.9336-15.9336 0-8.7999 7.1337-15.9337 15.9336-15.9337zm-13.9419 15.9337c0 7.6999 6.242 13.9419 13.9419 13.9419 7.6963-.0087 13.9332-6.2457 13.9419-13.9419 0-7.6999-6.242-13.942-13.9419-13.942s-13.9419 6.2421-13.9419 13.942z"/><path d="m34.6094 23.904c1.1676-1.1646 3.0576-1.1646 4.2252 0 .5603.5603.8751 1.3202.8751 2.1126s-.3148 1.5523-.8751 2.1126l-10.9544 10.9543c-.5603.5603-1.3202.8751-2.1126.8751-.7923 0-1.5522-.3148-2.1125-.8751l-3.9834-3.9834c-1.1668-1.1667-1.1668-3.0584 0-4.2251 1.1667-1.1668 3.0584-1.1668 4.2251 0l1.8708 1.8709zm-8.1377 13.771 10.9544-10.9544h.0001c.2589-.25.3627-.6202.2716-.9684-.0912-.3482-.3631-.6201-.7113-.7112-.3481-.0912-.7184.0126-.9684.2715l-9.5461 9.5459c-.3889.3888-1.0194.3888-1.4083 0l-2.5751-2.5749c-.3901-.3816-1.0146-.3781-1.4005.0077-.3858.3858-.3894 1.0102-.0079 1.4004l3.9834 3.9834c.3889.3888 1.0192.3888 1.4081 0z"/><path d="m5.85063 30c0-13.1788 10.72167-23.90045 23.90037-23.90045 13.1788 0 23.9005 10.72165 23.9005 23.90045 0 13.1787-10.7217 23.9004-23.9005 23.9004-13.1787 0-23.90037-10.7217-23.90037-23.9004zm1.9917 0c0 12.0805 9.82817 21.9087 21.90867 21.9087 12.0806 0 21.9088-9.8282 21.9088-21.9087 0-12.0806-9.8282-21.90875-21.9088-21.90875-12.0805 0-21.90867 9.82815-21.90867 21.90875z"/></g></g></svg>

<svg width="60" height="60" viewBox="0 0 60 60" fill="none" xmlns="http://www.w3.org/2000/svg">
<path d="M56.639 30L58.423 26.5193L55.8637 23.5625L56.761 19.7563L53.5647 17.5029L53.5204 13.5926L49.8776 12.17L48.902 8.38304L45.0254 7.86868L43.175 4.42341L39.2879 4.85213L36.6635 1.95308L32.994 3.30545L29.751 1.1203L26.5081 3.30545L22.8385 1.95308L20.2139 4.85213L16.327 4.42354L14.4766 7.86881L10.5998 8.38316L9.6244 12.1703L5.98158 13.5928L5.93727 17.5032L2.74108 19.7564L3.63835 23.5627L1.07901 26.5193L2.86308 30L1.07913 33.4806L3.63835 36.4374L2.74108 40.2437L5.93739 42.497L5.98171 46.4074L9.62453 47.8299L10.6001 51.6169L14.4767 52.1313L16.3271 55.5765L20.2142 55.1478L22.8386 58.0469L26.5081 56.6945L29.751 58.8796L32.994 56.6945L36.6636 58.0469L39.2882 55.1478L43.1751 55.5764L45.0255 52.1311L48.9022 51.6168L49.8777 47.8297L53.5205 46.4071L53.5648 42.4968L56.761 40.2435L55.8637 36.4373L58.4231 33.4806L56.639 30Z" fill="#FF7B5D"/>
<path d="M29.751 52.9045C42.4009 52.9045 52.6556 42.6498 52.6556 30C52.6556 17.3501 42.4009 7.0954 29.751 7.0954C17.1012 7.0954 6.84648 17.3501 6.84648 30C6.84648 42.6498 17.1012 52.9045 29.751 52.9045Z" fill="#ECF4FA"/>
<path d="M29.751 44.9377C38.0009 44.9377 44.6888 38.2499 44.6888 30C44.6888 21.7501 38.0009 15.0622 29.751 15.0622C21.5011 15.0622 14.8133 21.7501 14.8133 30C14.8133 38.2499 21.5011 44.9377 29.751 44.9377Z" fill="#FF7B5D"/>
<path opacity="0.2" d="M17.6096 38.7027C22.145 45.0261 30.7749 46.809 37.4448 42.8006C44.1147 38.7922 46.5907 30.3351 43.1357 23.3625C37.2045 31.8827 27.9169 37.4643 17.6096 38.7027Z" fill="white"/>
<path d="M25.7676 38.9626C25.2393 38.9633 24.7325 38.7533 24.3594 38.3792L20.376 34.3958C19.8653 33.8942 19.6631 33.1571 19.8463 32.4651C20.0295 31.7731 20.5699 31.2326 21.262 31.0494C21.954 30.8663 22.691 31.0685 23.1926 31.5793L25.7676 34.1542L35.3137 24.6083C36.0935 23.8424 37.3448 23.848 38.1177 24.6209C38.8906 25.3937 38.8962 26.645 38.1304 27.4248L27.176 38.3792C26.8029 38.7533 26.296 38.9633 25.7676 38.9626Z" fill="#ECF4FA"/>
<path fill-rule="evenodd" clip-rule="evenodd" d="M54.5547 16.9825L57.3347 18.9424C57.667 19.1764 57.8237 19.5888 57.7307 19.9845L56.9502 23.2957L59.1759 25.8677C59.4416 26.1747 59.4943 26.6123 59.3091 26.9736L57.758 30L59.3091 33.0269C59.4943 33.3882 59.4416 33.8257 59.1759 34.1328L56.9516 36.705L57.7321 40.0162C57.8253 40.4118 57.6688 40.8244 57.3366 41.0586L54.5566 43.0186L54.518 46.4197C54.5134 46.8257 54.2627 47.1883 53.8845 47.336L50.7166 48.573L49.8683 51.8664C49.767 52.2597 49.437 52.5521 49.0343 52.6053L45.6629 53.0525L44.0537 56.0488C43.8615 56.4068 43.4711 56.6121 43.0672 56.5675L39.6861 56.1941L37.4032 58.7159C37.1302 59.0171 36.7016 59.1224 36.3202 58.982L33.1287 57.8056L30.3085 59.7062C29.9721 59.9329 29.5318 59.9329 29.1954 59.7062L26.3751 57.8056L23.1839 58.9818C22.8025 59.1226 22.3738 59.0173 22.1009 58.7159L19.8179 56.1942L16.4368 56.567C16.033 56.611 15.6429 56.4059 15.4503 56.0483L13.8411 53.052L10.4698 52.6048C10.0671 52.5516 9.73707 52.2593 9.63573 51.866L8.78739 48.5726L5.61909 47.3352C5.24083 47.1875 4.99016 46.8249 4.98561 46.4188L4.94702 43.0177L2.16698 41.0578C1.83478 40.8236 1.6782 40.4111 1.77138 40.0155L2.55187 36.7043L0.326147 34.1323C0.0604624 33.8252 0.00776166 33.3877 0.192952 33.0264L1.74411 30L0.192952 26.9731C0.00776166 26.6118 0.0604624 26.1742 0.326147 25.8672L2.55225 23.2962L1.77175 19.9849C1.67849 19.5893 1.83502 19.1767 2.16723 18.9425L4.94664 16.9826L4.98523 13.5815C4.98984 13.1755 5.2405 12.8129 5.61872 12.6652L8.78664 11.4282L9.63486 8.13482C9.73616 7.74148 10.0662 7.44907 10.4689 7.3959L13.8407 6.94864L15.4499 3.95238C15.6419 3.59421 16.0325 3.38884 16.4364 3.43366L19.8174 3.80648L22.0998 1.28462C22.3726 0.983181 22.8013 0.87788 23.1828 1.0186L26.3742 2.19495L29.1945 0.294368C29.5309 0.0676487 29.9712 0.0676487 30.3076 0.294368L33.1275 2.19495L36.3187 1.01873C36.7001 0.87776 37.1289 0.98304 37.4017 1.28462L39.6847 3.80698L43.0658 3.43354C43.4696 3.38956 43.8597 3.59469 44.0523 3.95225L45.6615 6.94852L49.0323 7.39578C49.435 7.44893 49.765 7.74128 49.8664 8.13458L50.7147 11.428L53.8826 12.6649C54.2609 12.8127 54.5115 13.1753 54.5161 13.5814L54.5547 16.9825ZM55.7528 29.5459L57.2303 26.663L55.1104 24.2145C54.9011 23.9729 54.8206 23.6455 54.894 23.3344L55.6368 20.1829L52.9903 18.3171C52.729 18.1329 52.5721 17.8343 52.5685 17.5145L52.5327 14.2764L49.5157 13.0983C49.2175 12.9818 48.9935 12.7291 48.9137 12.4191L48.1056 9.28217L44.8949 8.85632C44.5775 8.81437 44.2996 8.62233 44.1481 8.34022L42.6158 5.48661L39.3971 5.84163C39.0795 5.8763 38.7644 5.75676 38.5498 5.52009L36.3767 3.1196L33.3383 4.23993C33.0381 4.3506 32.7029 4.31022 32.4375 4.13138L29.751 2.32105L27.0646 4.13163C26.7991 4.31029 26.4641 4.35071 26.1637 4.2403L23.1252 3.11997L20.9521 5.52059C20.7374 5.75719 20.4224 5.87671 20.1047 5.84213L16.8861 5.48711L15.355 8.33985C15.2035 8.62195 14.9256 8.814 14.6081 8.85595L11.3974 9.2818L10.5894 12.4187C10.5096 12.7288 10.2856 12.9815 9.98739 13.098L6.97034 14.2761L6.93299 17.5144C6.92936 17.8341 6.77243 18.1326 6.51113 18.3169L3.86465 20.1828L4.60756 23.3341C4.68088 23.6452 4.60041 23.9726 4.39121 24.2143L2.27179 26.663L3.74926 29.5454C3.8957 29.8306 3.8957 30.1689 3.74926 30.4541L2.27179 33.3369L4.39171 35.7855C4.60098 36.0271 4.68147 36.3545 4.60806 36.6656L3.86528 39.8171L6.51175 41.6828C6.77309 41.8671 6.93002 42.1657 6.93362 42.4854L6.96934 45.7236L9.9864 46.9017C10.2846 47.0182 10.5085 47.2709 10.5884 47.5808L11.3965 50.7178L14.6071 51.1436C14.9246 51.1856 15.2025 51.3776 15.354 51.6597L16.8863 54.5133L20.105 54.1583C20.4226 54.1236 20.7377 54.2431 20.9523 54.4798L23.1254 56.8803L26.1637 55.76C26.464 55.6493 26.7992 55.6897 27.0646 55.8686L29.751 57.6789L32.4375 55.8683C32.7029 55.6896 33.038 55.6492 33.3383 55.7596L36.3769 56.88L38.55 54.4793C38.7646 54.2426 39.0797 54.123 39.3974 54.1578L42.6159 54.5128L44.1471 51.6606C44.2986 51.3785 44.5765 51.1864 44.8939 51.1445L48.1047 50.7186L48.9127 47.5817C48.9925 47.2717 49.2165 47.0189 49.5147 46.9024L52.5317 45.7243L52.5691 42.4861C52.5727 42.1663 52.7297 41.8678 52.991 41.6835L55.6374 39.8177L54.8945 36.6663C54.8212 36.3552 54.9017 36.0278 55.1109 35.7861L57.2303 33.3374L55.7528 30.4546C55.6064 30.1694 55.6064 29.8311 55.7528 29.5459Z" fill="#102B44"/>
<path d="M47.6764 29.9999V30.0418H49.6681V29.9999C49.668 29.3052 49.6322 28.6109 49.5608 27.9199L47.5798 28.1255C47.644 28.7482 47.6763 29.3739 47.6764 29.9999Z" fill="#102B44"/>
<path d="M13.3618 37.2717L11.5418 38.0808C11.8246 38.7162 12.1404 39.3364 12.4879 39.9389L14.2132 38.9438C13.9005 38.4016 13.6163 37.8435 13.3618 37.2717V37.2717Z" fill="#102B44"/>
<path d="M16.404 44.7835C16.9199 45.2493 17.4596 45.6881 18.021 46.0979L19.195 44.4896C18.6896 44.1205 18.2038 43.7255 17.7393 43.306L16.404 44.7835Z" fill="#102B44"/>
<path d="M43.0748 18.0082C43.4936 18.4735 43.8881 18.9602 44.2565 19.4663L45.867 18.2945C45.4579 17.7328 45.0199 17.1926 44.555 16.6762L43.0748 18.0082Z" fill="#102B44"/>
<path d="M23.5662 48.9378C24.2275 49.1533 24.8996 49.3341 25.5798 49.4793L25.9951 47.5314C25.3834 47.4009 24.7789 47.2383 24.1842 47.0443L23.5662 48.9378Z" fill="#102B44"/>
<path d="M47.2886 26.273L49.2372 25.8609C49.0932 25.1803 48.9135 24.5078 48.699 23.8461L46.805 24.4606C46.9978 25.0558 47.1593 25.6608 47.2886 26.273Z" fill="#102B44"/>
<path d="M46.1328 22.7101L47.9518 21.8992C47.6686 21.2638 47.3523 20.6437 47.0042 20.0414L45.2801 21.0388C45.5933 21.5806 45.8779 22.1385 46.1328 22.7101Z" fill="#102B44"/>
<path d="M27.6381 49.8061C28.329 49.8787 29.0233 49.9157 29.7181 49.9168L29.7213 47.9251C29.0953 47.9242 28.4698 47.891 27.8472 47.8256L27.6381 49.8061Z" fill="#102B44"/>
<path d="M15.234 40.5176L13.6221 41.6878C14.0305 42.2503 14.4679 42.7912 14.9325 43.3083L16.4139 41.9769C15.9956 41.5112 15.6018 41.0242 15.234 40.5176V40.5176Z" fill="#102B44"/>
<path d="M43.0818 15.2018C42.5654 14.7364 42.0253 14.2982 41.4635 13.8889L40.2914 15.4991C40.797 15.8676 41.2832 16.262 41.7478 16.681L43.0818 15.2018Z" fill="#102B44"/>
<path d="M39.7169 12.7519C39.1152 12.4038 38.4958 12.0874 37.8611 11.8039L37.0491 13.6226C37.6202 13.8777 38.1776 14.1625 38.7191 14.4758L39.7169 12.7519Z" fill="#102B44"/>
<path d="M24.2213 12.9434L23.6076 11.0488C22.9459 11.2635 22.2958 11.5128 21.6602 11.7957L22.4701 13.6153C23.0417 13.3609 23.6262 13.1366 24.2213 12.9434Z" fill="#102B44"/>
<path d="M27.8864 12.1704L27.682 10.1891C26.9905 10.2607 26.3032 10.3682 25.6229 10.5113L26.0337 12.4603C26.6457 12.3313 27.2642 12.2346 27.8864 12.1704Z" fill="#102B44"/>
<path d="M31.8423 10.1914C31.1512 10.1195 30.4569 10.0833 29.7621 10.0829L29.7611 12.0746C30.3871 12.075 31.0126 12.1076 31.6352 12.1724L31.8423 10.1914Z" fill="#102B44"/>
<path d="M35.915 11.0554C35.2536 10.8407 34.5814 10.6606 33.9011 10.5161L33.4876 12.4643C34.0995 12.5944 34.7041 12.7565 35.2991 12.9498L35.915 11.0554Z" fill="#102B44"/>
<path d="M44.2345 40.5638L45.8428 41.7389C46.2527 41.1776 46.6331 40.5953 46.9825 39.9944L45.2607 38.9935C44.9461 39.5344 44.6035 40.0585 44.2345 40.5638Z" fill="#102B44"/>
<path d="M38.6861 45.5432L39.6805 47.269C40.2829 46.9217 40.8667 46.5433 41.4296 46.1352L40.2608 44.5228C39.7539 44.8901 39.2283 45.2306 38.6861 45.5432H38.6861Z" fill="#102B44"/>
<path d="M19.766 47.2369C20.3673 47.5858 20.9864 47.903 21.6208 48.1872L22.4348 46.3698C21.8639 46.1141 21.3069 45.8287 20.7659 45.5147L19.766 47.2369Z" fill="#102B44"/>
<path d="M41.7204 43.3444L43.0509 44.8257C43.568 44.3614 44.0607 43.8706 44.527 43.3552L43.0498 42.0193C42.6299 42.4837 42.1862 42.926 41.7204 43.3444H41.7204Z" fill="#102B44"/>
<path d="M46.1164 37.3254L47.9338 38.1402C48.2182 37.5055 48.4691 36.8564 48.6854 36.1954L46.7925 35.5767C46.5979 36.171 46.3722 36.7547 46.1164 37.3254H46.1164Z" fill="#102B44"/>
<path d="M35.262 47.0625L35.8734 48.958C36.5355 48.7443 37.1859 48.4958 37.8218 48.2137L37.0139 46.3932C36.4421 46.6469 35.8573 46.8703 35.262 47.0625H35.262Z" fill="#102B44"/>
<path d="M12.2176 26.2531L10.2697 25.8394C10.1254 26.5195 10.0167 27.2067 9.94408 27.8981L11.9248 28.106C11.99 27.4837 12.0878 26.8652 12.2176 26.2531Z" fill="#102B44"/>
<path d="M11.8257 30V29.9791H9.83403V30C9.83402 30.6874 9.86913 31.3744 9.93922 32.0583L11.9205 31.8545C11.8573 31.2383 11.8257 30.6194 11.8257 30Z" fill="#102B44"/>
<path d="M31.5959 47.8316L31.7981 49.8131C32.4897 49.7423 33.177 49.6355 33.8574 49.4931L33.4493 47.5438C32.8369 47.6718 32.2182 47.7679 31.5959 47.8316Z" fill="#102B44"/>
<path d="M13.3776 22.6929L11.5592 21.8802C11.2756 22.5152 11.0255 23.1646 10.81 23.8258L12.7037 24.4426C12.8976 23.848 13.1226 23.264 13.3776 22.6929Z" fill="#102B44"/>
<path d="M12.2095 33.7075L10.2604 34.1174C10.4037 34.7982 10.5826 35.4709 10.7964 36.1329L12.6916 35.5202C12.4992 34.9249 12.3383 34.3198 12.2095 33.7075V33.7075Z" fill="#102B44"/>
<path d="M47.2803 33.7658L49.228 34.1823C49.3731 33.5023 49.4826 32.8153 49.556 32.1239L47.5754 31.9139C47.5093 32.5359 47.4108 33.154 47.2803 33.7658H47.2803Z" fill="#102B44"/>
<path d="M17.7669 16.6695L16.4349 15.1889C15.9183 15.6539 15.4262 16.1454 14.9604 16.6613L16.4391 17.9955C16.8586 17.5309 17.3017 17.0883 17.7669 16.6695Z" fill="#102B44"/>
<path d="M15.2561 19.4522L13.6465 18.2788C13.2372 18.8406 12.8574 19.4232 12.5085 20.0244L14.2316 21.0235C14.5455 20.4823 14.8875 19.9578 15.2561 19.4522Z" fill="#102B44"/>
<path d="M20.7988 14.4666L19.803 12.7418C19.201 13.0898 18.6174 13.4689 18.0548 13.8775L19.2257 15.4888C19.7319 15.1209 20.257 14.7797 20.7988 14.4666Z" fill="#102B44"/>
<path fill-rule="evenodd" clip-rule="evenodd" d="M29.751 14.0663C38.5509 14.0663 45.6846 21.2001 45.6846 30C45.6746 38.7957 38.5468 45.9235 29.751 45.9336C20.9511 45.9336 13.8174 38.7998 13.8174 30C13.8174 21.2001 20.9511 14.0663 29.751 14.0663ZM15.8091 30C15.8091 37.6999 22.0511 43.9419 29.751 43.9419C37.4473 43.9332 43.6842 37.6962 43.6929 30C43.6929 22.3001 37.4509 16.058 29.751 16.058C22.0511 16.058 15.8091 22.3001 15.8091 30Z" fill="#102B44"/>
<path fill-rule="evenodd" clip-rule="evenodd" d="M34.6094 23.904C35.777 22.7394 37.667 22.7394 38.8346 23.904C39.3949 24.4643 39.7097 25.2242 39.7097 26.0166C39.7097 26.809 39.3949 27.5689 38.8346 28.1292L27.8802 39.0835C27.3199 39.6438 26.56 39.9586 25.7676 39.9586C24.9753 39.9586 24.2154 39.6438 23.6551 39.0835L19.6717 35.1001C18.5049 33.9334 18.5049 32.0417 19.6717 30.875C20.8384 29.7082 22.7301 29.7082 23.8968 30.875L25.7676 32.7459L34.6094 23.904ZM26.4717 37.675L37.4261 26.7206H37.4262C37.6851 26.4706 37.7889 26.1004 37.6978 25.7522C37.6066 25.404 37.3347 25.1321 36.9865 25.041C36.6384 24.9498 36.2681 25.0536 36.0181 25.3125L26.472 34.8584C26.0831 35.2472 25.4526 35.2472 25.0637 34.8584L22.4886 32.2835C22.0985 31.9019 21.474 31.9054 21.0881 32.2912C20.7023 32.677 20.6987 33.3014 21.0802 33.6916L25.0636 37.675C25.4525 38.0638 26.0828 38.0638 26.4717 37.675Z" fill="#102B44"/>
<path fill-rule="evenodd" clip-rule="evenodd" d="M5.85063 30C5.85063 16.8212 16.5723 6.09955 29.751 6.09955C42.9298 6.09955 53.6515 16.8212 53.6515 30C53.6515 43.1787 42.9298 53.9004 29.751 53.9004C16.5723 53.9004 5.85063 43.1787 5.85063 30ZM7.84233 30C7.84233 42.0805 17.6705 51.9087 29.751 51.9087C41.8316 51.9087 51.6598 42.0805 51.6598 30C51.6598 17.9194 41.8316 8.09125 29.751 8.09125C17.6705 8.09125 7.84233 17.9194 7.84233 30Z" fill="#102B44"/>
</svg>
